X:1
T:Phyllis hath sworn - Weelkes
T:#
%%score { 1 | 2 } 3 4 5
L:1/8
Q:1/4=120
M:4/4
K:F
V:1 treble nm="Soprano I" snm="S"
V:2 treble 
V:3 treble nm="Alto" snm="A"
V:4 treble-8 nm="Tenor" snm="T"
V:5 bass nm="Bass" snm="B"
V:1
"^Phyllis hath sworn" z2 d3 c B2 | A2 G2 ^F2 B2 | A2 f3 e"^Thomas Weelkes\n(1576-1623)" d2 | %3
w: Phyl- lis hath|sworn she loves the|man, Phyl- lis hath|
 c2 B2 A2 d2 | c2 d3 c B2 | A2 B3 A G2 | ^F2 G2 A2 G2 | ^F2 z2 z4 | z8 | z8 | z8 | z2 g3 f _e2 | %12
w: sworn she loves the|man, Phyl- lis hath|sworn, Phyl- lis hath|sworn she loves the|man,||||Phyl- lis hath|
 d2 f3 (_e d2) | (c3 B) A4 | z2 (G4 ^F2) | G2 G2 B4- | B2 A2 B2 G2 | A2 d2 c2 c2 | d6 c2 | %19
w: sworn she loves *|the * man,|the *|man that knows|* what's love and|love her can, that|knows what's|
 d2 B2 A2 f2 | e4 z2 d2 | f2 e2 f2 d2 | c6 c2 | c4 d4- | d2 d2 d4 | d2 d2 B3 c | d2 ^f3 =f f2 | %27
w: love and love her|can, that|knows what's love and|love her|can. Phi\-|* le- mon|then must needs a-|gree, Phi- le- mon|
 g2 f2 e4- | e2 e2 ^f2 d2- | dc A2 B2 B2 | A2 A2 G2 d2- | dc A2 =B3 c | d2 d2 G2 g2- | %33
w: then must needs|* a- gree, Phyl\-|* lis my choice of|choice shall be, Phyl\-|* lis my choice of|choice shall be, Phyl\-|
 gf d2 _e2 e2 | d4 (c3 B) | A4 z4 | z2 d3 c A2 | B2 B2 A2 A2 | G2 z2 z4 | z2 d3 e ^f2 | %40
w: * lis my choice of|choice shall *|be,|Phyl- lis my|choice of choice shall|be,|Phyl- lis my|
 g2 G2 A2 A2 | G2 d3 e ^f2 | g4 _e4 | d8 | d8 | !fermata!d8 |] %46
w: choice of choice shall|be, Phyl- lis my|choice of|choice|shall|be.|
V:2
 z4 z2 d2- | dc B2 A2 G2 | ^F2 B2 A2 =f2- | fe d2 c2 B2 | A2 (B3 A G2) | ^F4 z2 d2- | dc B2 A2 z2 | %7
w: Phyl\-|* lis hath sworn she|loves the man, Phyl\-|* lis hath sworn she|loves the * *|man, Phyl\-|* lis hath sworn,|
 z2 d3 c B2 | A2 F3 E D2 | D4 z4 | z8 | z8 | z4 z2 g2- | gf _e2 d2 f2 | _e2 (d3 c A2) | =B4 z2 G2 | %16
w: Phyl- lis hath|sworn, Phyl- lis hath|sworn,|||Phyl\-|* lis hath sworn she|loves the * *|man, that|
 d6 c2 | d2 B2 B2 A2 | B2 d2 f4- | f2 e2 f2 d2 | d2 ^c2 d4 | z4 z4 | z8 | z4 A4- | A2 A2 A4 | %25
w: knows what's|love and love her|can, that knows|* what's love and|love her can.|||Phi\-|* le- mon|
 B2 A2 G3 G | A2 d3 d d2 | d2 d4 ^c (=B | ^c4) d2 A2 | A2 D2 D2 d2- | dc A2 B2 B2 | A2 A2 G2 g2- | %32
w: then must needs a-|gree Phi- le- mon|then must needs a\-|* gree, must|needs a- gree, Phyl\-|* lis my choice of|choice shall be, Phyl\-|
 gf d2 _e2 e2 | d2 d2 c2 g2- | gf d2 _e2 e2 | d2 d3 c A2 | B2 B2 A2 A2 | G2 d3 c A2 | B2 A2 A2 A2 | %39
w: * lis my choice of|choice shall be, Phyl\-|* lis my choice of|choice, Phyl- lis my|choice of choice shall|be, Phyl- lis my|choice of choice shall|
 G4 z4 | z2 d3 e ^f2 | g2 G2 A2 A2 | G6 A2 | ^F4 (G4- | G4 ^F4) | !fermata!G8 |] %46
w: be,|Phyl- lis my|choice of choice shall|be, of|choice shall||be.|
V:3
 D8 | D4 D4 | D4 F4 | F8- | F4 D4 | D8 | z2 d3 c B2 | A2 B3 A G2 | ^F2 B3 A G2 | ^F2 D3 C B,2 | %10
w: Phyl-|lis hath|sworn she|loves|* the|man,|Phyl- lis hath||||
w: |||||||sworn, Phyl- lis hath|sworn, Phyl- lis hath|sworn, Phyl- lis hath|
 A,2 G,2 A,2 A,2 | B,4 z2 c2- | cB A2 G2 B2- | BA (G4 F2) | G2 D2 D3 D | D8 | z8 | z4 z2 F2 | %18
w: |man, Phyl\-|* lis hath sworn, Phyl\-|* lis hath *|sworn she loves the|man||that|
w: sworn she loves the||||||||
 B6 A2 | B2 G2 F3 G | A4 z2 F2 | A6 G2 | A2 F2 F2 E2 | F4 ^F4- | F2 ^F2 F4 | G2 ^F2 G3 G | %26
w: knows what's|love and love her|can, that|knows what's|love and love her|can. Phi\-|* le- mon|then must needs a-|
w: ||||||||
 ^F2 A3 A A2 | B2 A2 A4- | A2 A2 A2 ^F2- | FG A2 G2 G2 | A2 D2 D2 D2- | DE ^F2 G2 G2 | G6 G2 | %33
w: gree, Phi- le- mon|then must needs|* a- gree, Phyl\-|* lis my choice of|choice shall be, Phyl\-|* lis my choice of|choice shall|
w: |||||||
 G4 z2 G2- | GA =B2 c2 C2 | D2 D2 D4 | z8 | z2 D3 E ^F2 | G2 d3 c A2 | B2 B2 A2 A2 | G4 z2 d2- | %41
w: be, Phyl\-|* lis my choice of|choice shall be,||Phyl- lis my|choice, Phyl- lis my|choice of choice shall|be, Phyl\-|
w: ||||||||
 dc B2 A2 D2 | D4 z4 | z4 G,2 D2- | D2 (C2 A,4) | !fermata!=B,8 |] %46
w: |||||
w: * lis my choice of|choice,|of choice|* shall *|be.|
V:4
 z8 | z8 | z8 | z8 | z8 | D8 | D4 d4 | d2 f3 e d2 | d2 d3 c B2 | A2 B3 A G2 | ^F2 G2 G2 F2 | %11
w: |||||Phyl-|lis hath|sworn, Phyl- lis hath|sworn, Phyl- lis hath|sworn, Phyl- lis hath|sworn she loves the|
 G4 G4 | F2 A2 B4 | z2 c3 B A2 | G2 B2 A2 A2 | G2 G2 g4- | g2 f2 g2 _e2 | d3 e f4 | z8 | z8 | %20
w: man, she|loves the man,|Phyl- lis hath|sworn she loves the|man that knows|* what's love and|love her can,|||
 z2 e2 f2 a2 | d2 e2 d3 d | e2 a2 g3 g | a4 A4- | A2 A2 d4 | B2 d2 G3 G | d2 d3 d d2 | g2 d2 A4- | %28
w: that knows what's|love and love her|can, and love her|can. Phi\-|* le- mon|then must needs a-|gree, Phi- le- mon|then must needs|
 A2 A2 d4 | z4 z2 d2- | de ^f2 g2 g2 | d2 d2 G4 | z4 z2 G2- | GA =B2 c4 | g4 c2 g2 | ^f2 f3 g a2 | %36
w: * a- gree,|Phyl\-|* lis my choice of|choice shall be,|Phyl\-|* lis my choice|of choice shall|be, Phyl- lis my|
 d2 d3 e ^f2 | g2 G2 d2 d2 | G2 ^F3 G A2 | d2 d3 c A2 | B2 G2 D2 D2 | G2 d3 c A2 | B4 c4- | c4 B4 | %44
w: choice, Phyl- lis my|choice of choice shall|be, Phyl- lis my|choice, Phyl- lis my|choice of choice shall|be, Phyl- lis my|choice of|* choice|
 A8 | !fermata!G8 |] %46
w: shall|be.|
V:5
 z8 | z8 | z8 | z8 | z8 | z2 D3 C B,2 | A,2 G,2 ^F,2 G,2 | D,8- | D,4 D,4 | D,4 D,4 | D,8 | %11
w: |||||Phyl- lis hath|sworn she loves the|man,|* she|loves the|man,|
 z2 _E,3 D, C,2 | D,4 G,4 | C,4 D,4 | _E,2 B,,2 D,2 D,2 | G,,8 | z8 | z8 | z8 | z8 | z2 A,2 D4- | %21
w: Phyl- lis hath|sworn she|loves the|man, she loves the|man,|||||that knows|
 D2 C2 D2 B,2 | A,3 (B, C4) | F,4 D,4- | D,2 D,2 D,4 | G,2 D,2 _E,3 E, | D,8 | z4 z4 | z4 z2 D,2- | %29
w: * what's love and|love her *|can. Phi\-|* le- mon|then must needs a-|gree,||Phyl\-|
 D,E, ^F,2 G,2 G,2 | D,2 D,2 G,,4 | z4 z2 G,2- | G,A, =B,2 C2 C,2 | G,2 G,2 C,4 | z8 | %35
w: * lis my choice of|choice shall be,|Phyl\-|* lis my choice of|choice shall be,||
 z2 D,3 E, ^F,2 | G,2 G,2 D,2 D,2 | G,,4 z4 | z2 D,3 E, ^F,2 | G,2 G,2 D,2 D,2 | G,2 D3 C A,2 | %41
w: Phyl- lis my|choice of choice shall|be,|Phyl- lis my|choice of choice shall|be, Phyl- lis my|
 B,2 G,2 D,2 D,2 | G,4 C,4 | D,8 | D,8 | !fermata!G,,8 |] %46
w: choice of choice shall|be, of|choice|shall|be.|

